svg/device/air_condition_open_fill.svg

<?xml version="1.0" encoding="UTF-8"?>
<svg width="24px" height="24px" viewBox="0 0 24 24" version="1.1" xmlns="http://www.w3.org/2000/svg" xmlns:xlink="http://www.w3.org/1999/xlink">
    <title>air_condition_open_fill</title>
    <g id="Icon" stroke="none" stroke-width="1" fill="none" fill-rule="evenodd">
        <g id="Device" transform="translate(-96.000000, -336.000000)">
            <g id="air_condition_open_fill" transform="translate(96.000000, 336.000000)">
                <path d="M24,0 L24,24 L0,24 L0,0 L24,0 Z M12.5935,23.2578 L12.5819,23.2595 L12.5109,23.295 L12.4919,23.2987 L12.4767,23.295 L12.4057,23.2595 C12.3958,23.2564 12.387,23.259 12.3821,23.2649 L12.378,23.2758 L12.3609,23.7031 L12.3659,23.7235 L12.3769,23.7357 L12.4805,23.8097 L12.4953,23.8136 L12.5071,23.8097 L12.6107,23.7357 L12.6233,23.7197 L12.6267,23.7031 L12.6096,23.2758 C12.6076,23.2657 12.601,23.2593 12.5935,23.2578 Z M12.8584,23.1453 L12.8445,23.1473 L12.6598,23.2397 L12.6499,23.2499 L12.6472,23.2611 L12.6651,23.6906 L12.6699,23.7034 L12.6784,23.7105 L12.8793,23.8032 C12.8914,23.8069 12.9022,23.803 12.9078,23.7952 L12.9118,23.7812 L12.8777,23.1665 C12.8753,23.1546 12.8674,23.147 12.8584,23.1453 Z M12.143,23.1473 C12.1332,23.1424 12.1222,23.1453 12.1156,23.1526 L12.1099,23.1665 L12.0758,23.7812 C12.0751,23.7927 12.0828,23.8019 12.0926,23.8046 L12.1083,23.8032 L12.3092,23.7105 L12.3186,23.7024 L12.3225,23.6906 L12.3404,23.2611 L12.3372,23.2485 L12.3278,23.2397 L12.143,23.1473 Z" id="MingCute" fill-rule="nonzero"></path>
                <path d="M10,16 C10.5523,16 11,16.4477 11,17 L11,18.1716 C11,18.9672 10.684,19.7303 10.1213,20.2929 L9.70713,20.7071 C9.31661,21.0976 8.68344,21.0976 8.29292,20.7071 C7.9024,20.3166 7.9024,19.6834 8.29292,19.2929 L8.70713,18.8787 C8.89467,18.6911 9.00003,18.4368 9.00003,18.1716 L9.00003,17 C9.00003,16.4477 9.44774,16 10,16 Z M14,16 C14.51285,16 14.9355092,16.386027 14.9932725,16.8833761 L15,17 L15,18.1716 C15,18.3926 15.0731944,18.6060306 15.2060995,18.7796 L15.2929,18.8787 L15.7071,19.2929 C16.0977,19.6834 16.0977,20.3166 15.7071,20.7071 C15.3466385,21.0675615 14.7793793,21.0952893 14.3871027,20.7902834 L14.2929,20.7071 L13.8787,20.2929 C13.3629833,19.7771833 13.0543951,19.092991 13.0065451,18.3697257 L13,18.1716 L13,17 C13,16.4477 13.4477,16 14,16 Z M6.00003,16 C6.51286143,16 6.93553653,16.386027 6.9933022,16.8833761 L7.00003,17 L7.00003,17.6126 C7.00003,18.4196 6.5158757,19.1417855 5.78242459,19.4531923 L5.63248,19.5099 L4.31625,19.9487 C3.79231,20.1233 3.22599,19.8402 3.05134,19.3162 C2.88917429,18.8297214 3.12174429,18.3066837 3.57529164,18.0945714 L3.6838,18.0513 L5.00003,17.6126 L5.00003,17 C5.00003,16.4477 5.44774,16 6.00003,16 Z M18,16 C18.51285,16 18.9355092,16.386027 18.9932725,16.8833761 L19,17 L19,17.6126 L20.3163,18.0513 C20.8402,18.226 21.1234,18.7923 20.9487,19.3162 C20.7865714,19.8027714 20.2866153,20.0816281 19.7965565,19.9791877 L19.6838,19.9487 L18.3676,19.5099 C17.6019437,19.2547125 17.0699008,18.5670152 17.0063863,17.7727726 L17,17.6126 L17,17 C17,16.4477 17.4477,16 18,16 Z M18,3 C19.597725,3 20.903664,4.24892392 20.9949075,5.82372764 L21,6 L21,12 C21,13.597725 19.7511226,14.903664 18.1762773,14.9949075 L18,15 L6,15 C4.40232321,15 3.09633941,13.7511226 3.00509271,12.1762773 L3,12 L3,6 C3,4.40232321 4.24892392,3.09633941 5.82372764,3.00509271 L6,3 L18,3 Z M18,11 L6,11 C5.44772,11 5,11.4477 5,12 L5,13 L19,13 L19,12 C19,11.4477 18.5523,11 18,11 Z M17,6 C16.4477,6 16,6.44772 16,7 C16,7.55228 16.4477,8 17,8 C17.5523,8 18,7.55228 18,7 C18,6.44772 17.5523,6 17,6 Z" id="形状" fill="#09244B"></path>
            </g>
        </g>
    </g>
</svg>

<svg xmlns="http://www.w3.org/2000/svg" width="24" height="24"><g fill="none" fill-rule="evenodd"><path d="M24 0v24H0V0h24ZM12.594 23.258l-.012.002-.071.035-.02.004-.014-.004-.071-.036c-.01-.003-.019 0-.024.006l-.004.01-.017.428.005.02.01.013.104.074.015.004.012-.004.104-.074.012-.016.004-.017-.017-.427c-.002-.01-.009-.017-.016-.018Zm.264-.113-.014.002-.184.093-.01.01-.003.011.018.43.005.012.008.008.201.092c.012.004.023 0 .029-.008l.004-.014-.034-.614c-.003-.012-.01-.02-.02-.022Zm-.715.002a.023.023 0 0 0-.027.006l-.006.014-.034.614c0 .012.007.02.017.024l.015-.002.201-.093.01-.008.003-.011.018-.43-.003-.012-.01-.01-.184-.092Z"/><path fill="#09244B" d="M10 16a1 1 0 0 1 1 1v1.172a3 3 0 0 1-.879 2.12l-.414.415a1 1 0 0 1-1.414-1.414l.414-.414A1 1 0 0 0 9 18.172V17a1 1 0 0 1 1-1Zm4 0a1 1 0 0 1 .993.883L15 17v1.172a1 1 0 0 0 .206.608l.087.099.414.414a1 1 0 0 1-1.32 1.497l-.094-.083-.414-.414a3 3 0 0 1-.872-1.923L13 18.172V17a1 1 0 0 1 1-1Zm-8 0a1 1 0 0 1 .993.883L7 17v.613a2 2 0 0 1-1.218 1.84l-.15.057-1.316.439a1 1 0 0 1-.74-1.854l.108-.044L5 17.613V17a1 1 0 0 1 1-1Zm12 0a1 1 0 0 1 .993.883L19 17v.613l1.316.438a1 1 0 0 1-.52 1.928l-.112-.03-1.316-.44a2 2 0 0 1-1.362-1.736l-.006-.16V17a1 1 0 0 1 1-1Zm0-13a3 3 0 0 1 2.995 2.824L21 6v6a3 3 0 0 1-2.824 2.995L18 15H6a3 3 0 0 1-2.995-2.824L3 12V6a3 3 0 0 1 2.824-2.995L6 3h12Zm0 8H6a1 1 0 0 0-1 1v1h14v-1a1 1 0 0 0-1-1Zm-1-5a1 1 0 1 0 0 2 1 1 0 0 0 0-2Z"/></g></svg>
